svgs/sharp-regular/mug-hot.svg

<svg xmlns="http://www.w3.org/2000/svg" viewBox="0 0 512 512"><!--! Font Awesome Pro 6.6.0 by @fontawesome - https://fontawesome.com License - https://fontawesome.com/license (Commercial License) Copyright 2024 Fonticons, Inc. --><path d="M112 0l0 24c0 16.1 7.5 23.7 23.8 37.9l1.1 1C152.6 76.6 176 97.1 176 136l0 24-48 0 0-24c0-16.1-7.5-23.7-23.8-37.9l-1.1-1C87.4 83.4 64 62.9 64 24L64 0l48 0zM48 240l0 224 288 0 0-224L48 240zM0 192l48 0 288 0 16 0 32 0 16 0c61.9 0 112 50.1 112 112s-50.1 112-112 112l-16 0 0 48 0 48-48 0L48 512 0 512l0-48L0 240l0-48zM384 368l16 0c35.3 0 64-28.7 64-64s-28.7-64-64-64l-16 0 0 128zM224 24c0 16.1 7.5 23.7 23.8 37.9l1.1 1C264.6 76.6 288 97.1 288 136l0 24-48 0 0-24c0-16.1-7.5-23.7-23.8-37.9l-1.1-1C199.4 83.4 176 62.9 176 24l0-24 48 0 0 24z"/></svg>

<svg xmlns="http://www.w3.org/2000/svg" viewBox="0 0 512 512"><!--! Font Awesome Pro 6.4.2 by @fontawesome - https://fontawesome.com License - https://fontawesome.com/license (Commercial License) Copyright 2023 Fonticons, Inc. --><path d="M112 0V24c0 16.1 7.5 23.7 23.8 37.9l1.1 1C152.6 76.6 176 97.1 176 136v24H128V136c0-16.1-7.5-23.7-23.8-37.9l-1.1-1C87.4 83.4 64 62.9 64 24V0h48zM48 240V464H336V240H48zM0 192H48 336h16 32 16c61.9 0 112 50.1 112 112s-50.1 112-112 112H384v48 48H336 48 0V464 240 192zM384 368h16c35.3 0 64-28.7 64-64s-28.7-64-64-64H384V368zM224 24c0 16.1 7.5 23.7 23.8 37.9l1.1 1C264.6 76.6 288 97.1 288 136v24H240V136c0-16.1-7.5-23.7-23.8-37.9l-1.1-1C199.4 83.4 176 62.9 176 24V0h48V24z"/></svg>
